X: 1
T:Mrs. Joan Grey
M:C|
L:1/8
Q:80
C:Michael Grey
S:March
K:HP
|: {g}e3/4d/4|
{g}c/4e3/4{gAGAG}A{ag}ag/4{a}e3/4|
{gf}gf/4{g}e3/4{Gdc}d{g}B/4d3/4|  !
{g}e3/4f/4{a}g3/4e/4{gde}d3/4G/4B/4d3/4|
{g}e3/4f/4{a}g3/4d/4{gBd}B{g}A/4{d}G3/4{g}c/4e3/4{gAGAG}A{ag}ag/4{a}e3/4
|
{gf}gf/4{g}e3/4{Gdc}d{g}B/4d3/4|  !
{g}e3/4f/4{a}g3/4e/4{gde}d3/4G/4{g}e/4g3/4|
{g}B{GdGe}A{GAG}A:| |:
{gf}g|  !
a3/2e/4{g}c/4e3/4{gAGAG}A3/4e/4{a}g/4a3/4|
{f}g3/4f/4{g}e/4g3/4{a}G3/4A/4{g}B/4d3/4|
{ag}ag/4{a}e3/4{gde}d3/4G/4{g}B/4d3/4|  !
{g}e3/4f/4{a}g3/4d/4{gBd}B{g}A/4{d}G3/4|1 a3/2e/4{g}c/4e3/4{gAGAG}A3/4e/
4{a}g/4a3/4|
{f}g3/4f/4{g}e/4g3/4{a}G3/4A/4{g}B/4d3/4|
{g}e3/4f/4{a}g3/4e/4{gde}d3/4G/4{g}e/4g3/4|  !
{g}B{GdGe}A{GAG}A:| |:
{gef}e|
{g}A{GdGe}A3/4e/4{g}d/4e3/4{gAGAG}A|  !
{gf}gf/4{g}e3/4{Gdc}d{g}B/4d3/4|
{g}e{GdGe}A3/4e/4{gde}d3/4G/4{g}B/4d3/4|
{g}e3/4f/4{a}g3/4d/4{gBd}B{g}A/4{d}G3/4{g}A{GdGe}A3/4e/4{g}d/4e3/4{gAGAG
}A|  !
{gf}gf/4{g}e3/4{Gdc}d{g}B/4d3/4|
{g}e3/4f/4{a}g3/4e/4{gde}d3/4G/4{g}e/4g3/4|
{g}B{GdGe}A{GAG}A:| |:  !
{gf}g|
a3/4e/4{g}c/4e3/4{ag}ag/4{a}e3/4|
{gf}g3/4e/4{g}d/4e3/4{a}g3/4e/4{g}d/4{e}B3/4|  !
{ag}ag/4{a}e3/4{gde}d3/4G/4{g}B/4d3/4|
{g}e3/4f/4{a}g3/4d/4{gBd}B{g}A/4{d}G3/4|1 a3/4e/4{g}c/4e3/4{ag}ag/4{a}e3
/4|
{gf}g3/4e/4{g}d/4e3/4{a}g3/4e/4{g}d/4{e}B3/4|  !
{g}e3/4f/4{a}g3/4e/4{gde}d3/4G/4{g}e/4g3/4|
{g}B{GdGe}A{GAG}A:|
